X:0479
M:6/8
L:1/8
Q:3/8=76
K:G
g>ag Tf2e| f2g  Ta3  |g>ag gfe | d2g   d<BG |
g>ag  gfe|Tf2g (Taga)|b>ag g>fe|(d<ge) d>BG:|

